src/assets/img/icons/duotone-icons/Weather/Celcium.svg

<?xml version="1.0" encoding="UTF-8"?>
<svg width="24px" height="24px" viewBox="0 0 24 24" version="1.1" xmlns="http://www.w3.org/2000/svg" xmlns:xlink="http://www.w3.org/1999/xlink">
    <!-- Generator: Sketch 52.2 (67145) - http://www.bohemiancoding.com/sketch -->
    <title>Stockholm-icons / Weather / Celcium</title>
    <desc>Created with Sketch.</desc>
    <g id="Stockholm-icons-/-Weather-/-Celcium" stroke="none" stroke-width="1" fill="none" fill-rule="evenodd">
        <polygon id="Shape" points="0 0 24 0 24 24 0 24"></polygon>
        <path d="M19.802,9.244 C19.4659983,8.78799772 19.0280027,8.45500105 18.488,8.245 C17.9479973,8.03499895 17.4200026,7.93 16.904,7.93 C16.2439967,7.93 15.6440027,8.0499988 15.104,8.29 C14.5639973,8.5300012 14.099002,8.8599979 13.709,9.28 C13.3189981,9.7000021 13.0190011,10.1919972 12.809,10.756 C12.598999,11.3200028 12.494,11.9319967 12.494,12.592 C12.494,13.2880035 12.595999,13.9239971 12.8,14.5 C13.004001,15.0760029 13.2949981,15.5709979 13.673,15.985 C14.0510019,16.3990021 14.5039974,16.7199989 15.032,16.948 C15.5600026,17.1760011 16.1539967,17.29 16.814,17.29 C17.4980034,17.29 18.1039974,17.1550013 18.632,16.885 C19.1600026,16.6149987 19.5859984,16.2580022 19.91,15.814 L21.728,17.092 C21.1639972,17.8000035 20.4740041,18.348998 19.658,18.739 C18.8419959,19.1290019 17.8880055,19.324 16.796,19.324 C15.799995,19.324 14.8850042,19.1590017 14.051,18.829 C13.2169958,18.4989984 12.500003,18.037003 11.9,17.443 C11.299997,16.848997 10.8320017,16.1410041 10.496,15.319 C10.1599983,14.4969959 9.992,13.588005 9.992,12.592 C9.992,11.5719949 10.1689982,10.6510041 10.523,9.829 C10.8770018,9.00699589 11.3629969,8.30800288 11.981,7.732 C12.5990031,7.15599712 13.3279958,6.71200156 14.168,6.4 C15.0080042,6.08799844 15.9199951,5.932 16.904,5.932 C17.312002,5.932 17.7379978,5.97099961 18.182,6.049 C18.6260022,6.12700039 19.051998,6.24699919 19.46,6.409 C19.868002,6.57100081 20.2519982,6.7719988 20.612,7.012 C20.9720018,7.2520012 21.2779987,7.53999832 21.53,7.876 L19.802,9.244 Z" id="°C" fill="#335EEA"></path>
        <path d="M2.72,8.92 C2.72,8.52399802 2.79499925,8.15200174 2.945,7.804 C3.09500075,7.45599826 3.30199868,7.15000132 3.566,6.886 C3.83000132,6.62199868 4.13599826,6.41500075 4.484,6.265 C4.83200174,6.11499925 5.20399802,6.04 5.6,6.04 C5.99600198,6.04 6.36799826,6.11499925 6.716,6.265 C7.06400174,6.41500075 7.36999868,6.62199868 7.634,6.886 C7.89800132,7.15000132 8.10499925,7.45599826 8.255,7.804 C8.40500075,8.15200174 8.48,8.52399802 8.48,8.92 C8.48,9.31600198 8.40500075,9.68799826 8.255,10.036 C8.10499925,10.3840017 7.89800132,10.6899987 7.634,10.954 C7.36999868,11.2180013 7.06400174,11.4249992 6.716,11.575 C6.36799826,11.7250007 5.99600198,11.8 5.6,11.8 C5.20399802,11.8 4.83200174,11.7250007 4.484,11.575 C4.13599826,11.4249992 3.83000132,11.2180013 3.566,10.954 C3.30199868,10.6899987 3.09500075,10.3840017 2.945,10.036 C2.79499925,9.68799826 2.72,9.31600198 2.72,8.92 Z M4.124,8.92 C4.124,9.32800204 4.26799856,9.67599856 4.556,9.964 C4.84400144,10.2520014 5.19199796,10.396 5.6,10.396 C6.00800204,10.396 6.35599856,10.2520014 6.644,9.964 C6.93200144,9.67599856 7.076,9.32800204 7.076,8.92 C7.076,8.51199796 6.93200144,8.16400144 6.644,7.876 C6.35599856,7.58799856 6.00800204,7.444 5.6,7.444 C5.19199796,7.444 4.84400144,7.58799856 4.556,7.876 C4.26799856,8.16400144 4.124,8.51199796 4.124,8.92 Z" id="Combined-Shape" fill="#335EEA" opacity="0.3"></path>
    </g>
</svg>

<svg width="24" height="24" viewBox="0 0 24 24" xmlns="http://www.w3.org/2000/svg"><g fill="none" fill-rule="evenodd"><path d="M0 0h24v24H0z"/><path d="M19.802 9.244a2.904 2.904 0 00-1.314-.999 4.353 4.353 0 00-1.584-.315c-.66 0-1.26.12-1.8.36s-1.005.57-1.395.99c-.39.42-.69.912-.9 1.476a5.221 5.221 0 00-.315 1.836c0 .696.102 1.332.306 1.908.204.576.495 1.071.873 1.485.378.414.831.735 1.359.963.528.228 1.122.342 1.782.342.684 0 1.29-.135 1.818-.405s.954-.627 1.278-1.071l1.818 1.278a5.825 5.825 0 01-2.07 1.647c-.816.39-1.77.585-2.862.585-.996 0-1.911-.165-2.745-.495a6.324 6.324 0 01-2.151-1.386 6.31 6.31 0 01-1.404-2.124c-.336-.822-.504-1.731-.504-2.727 0-1.02.177-1.941.531-2.763a6.153 6.153 0 011.458-2.097A6.473 6.473 0 0114.168 6.4a7.798 7.798 0 014.014-.351c.444.078.87.198 1.278.36.408.162.792.363 1.152.603.36.24.666.528.918.864l-1.728 1.368z" fill="#335EEA"/><path d="M2.72 8.92c0-.396.075-.768.225-1.116a2.92 2.92 0 011.539-1.539c.348-.15.72-.225 1.116-.225.396 0 .768.075 1.116.225a2.92 2.92 0 011.539 1.539c.15.348.225.72.225 1.116 0 .396-.075.768-.225 1.116a2.92 2.92 0 01-1.539 1.539c-.348.15-.72.225-1.116.225-.396 0-.768-.075-1.116-.225a2.92 2.92 0 01-1.539-1.539A2.789 2.789 0 012.72 8.92zm1.404 0c0 .408.144.756.432 1.044.288.288.636.432 1.044.432.408 0 .756-.144 1.044-.432.288-.288.432-.636.432-1.044 0-.408-.144-.756-.432-1.044A1.422 1.422 0 005.6 7.444c-.408 0-.756.144-1.044.432a1.422 1.422 0 00-.432 1.044z" fill="#335EEA" opacity=".3"/></g></svg>
